svg/24/pentagon.svg

<svg width="24" height="24" viewBox="0 0 24 24" fill="currentColor" xmlns="http://www.w3.org/2000/svg"><path fill-rule="evenodd" clip-rule="evenodd" d="M20.1928 9.30994L12.294 3.57108C12.1187 3.44376 11.8814 3.44376 11.7062 3.57108L3.80732 9.30994C3.63207 9.43726 3.55875 9.66294 3.62568 9.86895L6.64278 19.1546C6.70972 19.3606 6.90169 19.5001 7.11831 19.5001H16.8818C17.0984 19.5001 17.2904 19.3606 17.3574 19.1546L20.3745 9.86895C20.4414 9.66294 20.3681 9.43726 20.1928 9.30994ZM13.1756 2.35755C12.4747 1.84826 11.5255 1.84826 10.8245 2.35755L2.92564 8.09641C2.22467 8.6057 1.93135 9.50843 2.1991 10.3325L5.21619 19.6181C5.48394 20.4422 6.25185 21.0001 7.11831 21.0001H16.8818C17.7483 21.0001 18.5162 20.4422 18.7839 19.6181L21.801 10.3325C22.0688 9.50843 21.7755 8.6057 21.0745 8.09641L13.1756 2.35755Z"/></svg>

<svg xmlns="http://www.w3.org/2000/svg" width="24" height="24" fill="currentColor" viewBox="0 0 24 24">
  <path fill-rule="evenodd" d="m20.193 9.31-7.899-5.74a.5.5 0 0 0-.588 0L3.807 9.31a.5.5 0 0 0-.181.559l3.017 9.286a.5.5 0 0 0 .475.345h9.764a.5.5 0 0 0 .475-.345l3.018-9.286a.5.5 0 0 0-.182-.56Zm-7.017-6.952a2 2 0 0 0-2.351 0l-7.9 5.738a2 2 0 0 0-.726 2.236l3.017 9.286A2 2 0 0 0 7.118 21h9.764a2 2 0 0 0 1.902-1.382l3.017-9.285a2 2 0 0 0-.726-2.237l-7.9-5.738Z" clip-rule="evenodd"/>
</svg>
